assets/images/icon-canfield-lg.svg

<svg height="48" viewBox="0 0 48 48" width="48" xmlns="http://www.w3.org/2000/svg"><g fill="none" transform="translate(0 6)"><rect height="34.923" rx="4" stroke="#0b68b0" stroke-width="2" width="46" x="1" y="1"/><g fill="#0b68b0"><path d="m25.8959029 0h18.1040971c2.209139 0 4 1.790861 4 4v28.9230769c0 2.209139-1.790861 4-4 4-6.034699 0-12.0693981 0-18.1040971 0-.0663321 0-.0663321-1.8461538 0-1.8461538 9.2819817 0 14.7194817-9.2028245 14.7194817-14.7692308 0-1.8461538 0 1.8379121 0-3.6923077s-5.5392345-14.76923075-14.7194817-14.76923075c0-1.3491211 0-.97761419 0-1.84615385z"/><circle cx="23.5" cy="18.5" r="6.5"/><path d="m23.6153846 27.6666667c0-5.4673259 0-13.9231059 0-18.33333337-5.0980131 0-9.2307692 4.10405647-9.2307692 9.16666667s4.1327561 9.1666667 9.2307692 9.1666667zm0 7.3333333c-9.1764235 0-16.6153846-7.3873016-16.6153846-16.5 0-9.11269837 7.4389611-16.5 16.6153846-16.5z"/></g></g></svg>

<svg xmlns="http://www.w3.org/2000/svg" width="48" height="48" viewBox="0 0 48 48">
  <g fill="none" transform="translate(0 6)">
    <rect width="46" height="34.923" x="1" y="1" stroke="#0B68B0" stroke-width="2" rx="4"/>
    <path fill="#0B68B0" d="M25.8959029,0 C31.9306019,0 37.965301,0 44,0 C46.209139,1.55629733e-15 48,1.790861 48,4 L48,32.9230769 C48,35.1322159 46.209139,36.9230769 44,36.9230769 C37.965301,36.9230769 31.9306019,36.9230769 25.8959029,36.9230769 C25.8295708,36.9230769 25.8295708,35.0769231 25.8959029,35.0769231 C35.1778846,35.0769231 40.6153846,25.8740986 40.6153846,20.3076923 C40.6153846,18.4615385 40.6153846,22.1456044 40.6153846,16.6153846 C40.6153846,11.0851648 35.0761501,1.84615385 25.8959029,1.84615385 C25.8959029,0.497032752 25.8959029,0.868539663 25.8959029,0 Z"/>
    <circle cx="23.5" cy="18.5" r="6.5" fill="#0B68B0"/>
    <path fill="#0B68B0" d="M23.6153846,27.6666667 C23.6153846,22.1993408 23.6153846,13.7435608 23.6153846,9.33333333 C18.5173715,9.33333333 14.3846154,13.4373898 14.3846154,18.5 C14.3846154,23.5626102 18.5173715,27.6666667 23.6153846,27.6666667 Z M23.6153846,35 C14.4389611,35 7,27.6126984 7,18.5 C7,9.38730163 14.4389611,2 23.6153846,2 C23.6153846,9.87894694 23.6153846,27.6666667 23.6153846,35 Z"/>
  </g>
</svg>
